X: 44
T: Ave maris stella
N: Derived from Mar2006-Ave_maris_stella.krn
C: Johannes Martini
%%abc-version 2.0
%%abcx-abcm2ps-target-version 5.9.1 (29 Sep 2008)
%%abc-creator hum2abc beta
%%abcx-conversion-date 2019/02/17 07:19:41
%%abc-edited-by Jesse Rodin
%%abc-edited-by Chris Gage 08-15-2014
%%abcx-initial-encoding-date 2014/10/05/
%%humdrum-veritas 575163686
%%humdrum-veritas-data 2906096103
%%linebreak <none>
%%barnumbers 0
L: 1/4
M: 3/1
Q: 1/2=120
%%staves [1 2 3 4]
V: 1 clef=treble
V: 2 clef=treble-8
V: 3 clef=treble-8
V: 4 clef=bass
K: C
[V:1] z12 | 
[V:2] D8A4 | 
[V:3] z12 | 
[V:4] D,6E,2F,4 | 
[V:1] z12 | 
[V:2] B4G2A3Bc2 | 
[V:3] z12 | 
[V:4] G,3F,E,2D,2F,3E, | 
[V:1] z12 | 
[V:2] d2e3dd4^c2 | 
[V:3] z12 | 
[V:4] D,2C,2F,4E,4 | 
[V:1] D8A4 | 
[V:2] d8f4- | 
[V:3] D12- | 
[V:4] D,4F,6E,2 | 
[V:1] B4c8 | 
[V:2] f4e8 | 
[V:3] D4A8 | 
[V:4] D,3C,A,,8 | 
[V:1] d4B4A4 | 
[V:2] d4e4c4 | 
[V:3] B4G4A4 | 
[V:4] z4E,4F,4 | 
[V:1] G2F2G4F2G2 | 
[V:2] B2A4G2A2B2- | 
[V:3] B2d4c2d4 | 
[V:4] G,2D,2E,4D,2G,2- | 
[V:1] B2A4d4^c2 | 
[V:2] B2c2A4z2e2 | 
[V:3] d2c2d4e4 | 
[V:4] G,2A,2F,2D,2A,4 | 
[V:1] d8z4 | 
[V:2] f6e2d2cB | 
[V:3] d12 | 
[V:4] D,8D,4 | 
[V:1] c4B2A4GF | 
[V:2] A4B2c2d4 | 
[V:3] z12 | 
[V:4] F,4G,2F,2D,4 | 
[V:1] E3FG2A4^G2 | 
[V:2] c2e3dc2B4 | 
[V:3] z12 | 
[V:4] z2C,2B,,2A,,2E,4 | 
[V:1] A4z4z4 | 
[V:2] A4z4z4 | 
[V:3] c4B2A4GF | 
[V:4] A,,4B,,2C,2D,4 | 
[V:1] z12 | 
[V:2] e8d4 | 
[V:3] E3FG2A4^G2 | 
[V:4] C,2E,3D,C,2B,,4 | 
[V:1] A4A4D4 | 
[V:2] c2dcBAA4G2 | 
[V:3] A4z4z4 | 
[V:4] A,,2D,4C,2B,,4 | 
[V:1] E4F8 | 
[V:2] c4d6c2 | 
[V:3] A4A4D4 | 
[V:4] A,,4D,4F,4 | 
[V:1] G4z4F4 | 
[V:2] c6B2B2A2 | 
[V:3] E4F8 | 
[V:4] E,4D,8 | 
[V:1] E4D2A3GFE | 
[V:2] c4A4d4 | 
[V:3] G4z4F4 | 
[V:4] C,4D,2F,3C,B,,2 | 
[V:1] D2F3ED4^C2 | 
[V:2] e2f2d2cBcBAG | 
[V:3] E2D2F4E4 | 
[V:4] C,2D,4D,2A,,4 | 
[V:1] D8z4 | 
[V:2] F4z4A4 | 
[V:3] D12 | 
[V:4] z2A,4F,4D,2 | 
[V:1] F4E4G4 | 
[V:2] d4c4B2e2 | 
[V:3] z12 | 
[V:4] D,4A,4G,2C2 | 
[V:1] A2B3AA2^G4 | 
[V:2] c2d2c2A2B4 | 
[V:3] z12 | 
[V:4] A,2G,4F,2E,4 | 
[V:1] A4z4z4 | 
[V:2] A4z4z4 | 
[V:3] F4E4G4 | 
[V:4] z2A,,3B,,C,3D,E,2 | 
[V:1] z12 | 
[V:2] z12 | 
[V:3] A2B3AA4^G2 | 
[V:4] C,2D,3A,,C,2B,,4 | 
[V:1] A8D4 | 
[V:2] c3de2d2f2ed | 
[V:3] A4z4z4 | 
[V:4] A,,6D,4C,B,, | 
[V:1] E4F2E2D4 | 
[V:2] c2A2B2A4^G2 | 
[V:3] A8D4 | 
[V:4] A,,2C,2D,2A,,2B,,4 | 
[V:1] C2E2DCC4B,2 | 
[V:2] A2cBAGG4F2 | 
[V:3] E4F2E2D4 | 
[V:4] A,,4z4z4 | 
[V:1] C4z4E4 | 
[V:2] G4E4C4 | 
[V:3] C8z4 | 
[V:4] E,4G,8 | 
[V:1] G8z4 | 
[V:2] z2c3de3dd2- | 
[V:3] z4E4G4- | 
[V:4] E,3C,C,6D,2 | 
[V:1] E4F4E4 | 
[V:2] d2^c2d4G2A2- | 
[V:3] G4z4E4 | 
[V:4] E,4D,4C,4 | 
[V:1] D2A4G2F2E2 | 
[V:2] A2A2c4A2c2 | 
[V:3] F4E4D2A2 | 
[V:4] D,4C,4D,2A,,2 | 
[V:1] G3FEDD4^C2 | 
[V:2] d2c4B2A4 | 
[V:3] B2G4F2E4 | 
[V:4] G,,2C,4D,2A,,4 | 
[V:1] D12 |]  
[V:2] A12 |]  
[V:3] D12 |]  
[V:4] D,12 |]  



